logo/harness-icon.svg

<?xml version="1.0" encoding="UTF-8"?>
<svg width="256px" height="255px" viewBox="0 0 256 255" version="1.1" xmlns="http://www.w3.org/2000/svg" preserveAspectRatio="xMidYMid">
    <title>Harness</title>
    <g>
        <path d="M217.787355,131.99694 C216.222253,136.801562 213.686236,141.237682 210.334461,145.032011 L191.200019,164.060076 L154.198849,127.265784 L191.200019,90.4720795 L210.334461,109.131643 C213.686824,111.802249 216.17935,115.390875 217.503486,119.45438 C218.82821,123.517885 218.926947,127.878189 217.787355,131.99694 L217.787355,131.99694 Z M122.64233,216.570623 C117.925866,214.953801 113.590834,212.396038 109.90347,209.053667 L90.821923,190.078497 L127.822505,153.284793 L164.823675,190.078497 L145.63575,209.158869 C142.950451,212.492425 139.341255,214.970845 135.255416,216.287929 C131.16899,217.605012 126.784002,217.703162 122.64233,216.570623 L122.64233,216.570623 Z M37.5408732,121.956897 C39.1306593,117.140521 41.7037032,112.702638 45.0995569,108.921826 L64.2339992,89.9460689 L101.235169,126.740361 L64.2339992,163.534653 L45.0466619,144.454281 C41.691361,141.772508 39.1941332,138.17683 37.8611813,134.10686 C36.5282294,130.03689 36.4171501,125.668945 37.5408732,121.536676 L37.5408732,121.956897 Z M132.685899,36.9629938 C137.552231,38.5269202 142.035957,41.0876219 145.84733,44.4793615 L164.929465,63.4545314 L127.928295,100.248823 L90.9277128,63.4545314 L109.90347,44.90017 C112.589357,41.5660271 116.198553,39.0881941 120.284392,37.7705229 C124.370818,36.4534395 128.755219,36.3558777 132.896891,37.4884167 L132.685899,36.9629938 Z M236.7637,83.1132211 L171.959199,18.8811604 C164.369954,11.8261539 155.36195,6.45144262 145.52996,3.11259792 C123.488061,-4.19395326 101.604846,1.48284676 83.8444958,18.8811604 L18.9876873,83.1132211 C11.8950666,90.6619135 6.4909693,99.6193738 3.1297912,109.394354 C-4.21731276,131.31342 1.49122421,153.126696 18.9876873,170.788309 L83.4748191,235.177879 C91.0305641,242.351605 100.041507,247.835633 109.90347,251.262048 C115.916447,253.282046 122.216232,254.328778 128.562446,254.362865 C136.662421,254.200067 144.646027,252.41692 152.037798,249.120979 C159.429569,245.825038 166.079048,241.082715 171.589522,235.177879 L236.7637,170.998126 C243.953295,163.475881 249.449665,154.516657 252.885483,144.716992 C260.232587,122.797926 254.471155,100.98465 236.7637,83.3759325" fill="#00ADE5"></path>
    </g>
</svg>

<svg viewBox="0 0 256 255" xmlns="http://www.w3.org/2000/svg"><path fill="#00ADE5" d="M217.78 131.99c-1.57 4.8-4.11 9.24-7.46 13.03l-19.14 19.02 -37.01-36.8 37-36.8 19.13 18.65c3.35 2.67 5.84 6.25 7.16 10.32 1.32 4.06 1.42 8.42.28 12.54v0Zm-95.15 84.57c-4.72-1.62-9.06-4.18-12.74-7.52L90.8 190.06l37-36.8 37 36.79 -19.19 19.08c-2.69 3.33-6.3 5.81-10.39 7.12 -4.09 1.31-8.48 1.41-12.62.28v0Zm-85.11-94.62c1.58-4.82 4.16-9.26 7.55-13.04L64.2 89.92l37 36.79 -37.01 36.79L45 144.41c-3.36-2.69-5.86-6.28-7.19-10.35 -1.34-4.07-1.45-8.44-.33-12.58v.42Zm95.14-85c4.86 1.56 9.35 4.12 13.16 7.51l19.08 18.97 -37.01 36.79 -37.01-36.8 18.97-18.56c2.68-3.34 6.29-5.82 10.38-7.13 4.08-1.32 8.47-1.42 12.61-.29l-.22-.53Zm104.07 46.15l-64.81-64.24c-7.59-7.06-16.6-12.43-26.43-15.77 -22.05-7.31-43.93-1.63-61.69 15.76L18.94 83.07c-7.1 7.54-12.5 16.5-15.86 26.28 -7.35 21.91-1.64 43.73 15.85 61.39l64.48 64.38c7.55 7.17 16.56 12.65 26.42 16.08 6.01 2.01 12.31 3.06 18.65 3.1 8.09-.17 16.08-1.95 23.47-5.25 7.39-3.3 14.04-8.04 19.55-13.95l65.17-64.18c7.18-7.53 12.68-16.49 16.12-26.29 7.34-21.92 1.58-43.74-16.13-61.35"/></svg>
